( Generated by Carbide Copper )
( Material Size )
( X= 76.200, Y= 50.800, Z= 1.580 )
()
G17
G21
G54
G90
M05
(  )
T501 M06
( Contour )
M03 S10000
G0  X10.716 Y49.270
G0  Z3.000
G01 F400 Z0
G01 F400 Z-0.100
G01F400X10.560 Y49.237
X10.415 Y49.172
X10.289 Y49.081
X6.470 Y45.261
X6.370 Y45.151
X6.291 Y45.013
X6.242 Y44.862
X6.226 Y44.711
X6.226 Y37.686
X6.023 Y37.483
X6.023 Y36.685
X6.586 Y36.122
X7.384 Y36.122
X7.947 Y36.685
X7.947 Y37.483
X7.744 Y37.686
X7.744 Y44.391
X11.112 Y47.758
X47.308 Y47.758
X49.025 Y46.042
X49.025 Y32.317
X46.927 Y30.220
X43.220 Y30.220
X43.052 Y30.342
X42.858 Y30.428
X42.651 Y30.472
X42.439 Y30.472
X42.232 Y30.428
X42.038 Y30.342
X41.867 Y30.217
X41.725 Y30.060
X41.619 Y29.876
X41.553 Y29.675
X41.531 Y29.464
X41.553 Y29.253
X41.619 Y29.052
X41.725 Y28.868
X41.867 Y28.711
X42.038 Y28.586
X42.232 Y28.500
X42.439 Y28.456
X42.651 Y28.456
X42.858 Y28.500
X43.052 Y28.586
X43.220 Y28.708
X47.323 Y28.708
X47.479 Y28.741
X47.624 Y28.806
X47.750 Y28.897
X50.299 Y31.447
X50.399 Y31.557
X50.478 Y31.695
X50.527 Y31.846
X50.543 Y31.998
X50.543 Y46.361
X50.527 Y46.513
X50.478 Y46.664
X50.399 Y46.802
X50.299 Y46.912
X48.131 Y49.081
X48.005 Y49.172
X47.860 Y49.237
X47.704 Y49.270
X10.716 Y49.270
G0 Z3.000
G0  X41.532 Y43.177
G0  Z3.000
G01 F400 Z0
G01 F400 Z-0.100
G01F400X41.532 Y41.151
X43.558 Y41.151
X43.558 Y43.177
X41.532 Y43.177
G0 Z3.000
G0  X39.899 Y43.172
G0  Z3.000
G01 F400 Z0
G01 F400 Z-0.100
G01F400X39.692 Y43.128
X39.498 Y43.042
X39.327 Y42.917
X39.185 Y42.760
X39.079 Y42.576
X39.013 Y42.375
X38.991 Y42.164
X39.013 Y41.953
X39.079 Y41.752
X39.185 Y41.568
X39.327 Y41.411
X39.498 Y41.286
X39.692 Y41.200
X39.899 Y41.156
X40.111 Y41.156
X40.318 Y41.200
X40.512 Y41.286
X40.683 Y41.411
X40.825 Y41.568
X40.931 Y41.752
X40.997 Y41.953
X41.019 Y42.164
X40.997 Y42.375
X40.931 Y42.576
X40.825 Y42.760
X40.683 Y42.917
X40.512 Y43.042
X40.318 Y43.128
X40.111 Y43.172
X39.899 Y43.172
G0 Z3.000
G0  X39.899 Y40.632
G0  Z3.000
G01 F400 Z0
G01 F400 Z-0.100
G01F400X39.692 Y40.588
X39.498 Y40.502
X39.327 Y40.377
X39.185 Y40.220
X39.079 Y40.036
X39.013 Y39.835
X38.991 Y39.624
X39.013 Y39.413
X39.079 Y39.212
X39.185 Y39.028
X39.327 Y38.871
X39.498 Y38.746
X39.692 Y38.660
X39.899 Y38.616
X40.111 Y38.616
X40.318 Y38.660
X40.512 Y38.746
X40.683 Y38.871
X40.825 Y39.028
X40.931 Y39.212
X40.997 Y39.413
X41.019 Y39.624
X40.997 Y39.835
X40.931 Y40.036
X40.825 Y40.220
X40.683 Y40.377
X40.512 Y40.502
X40.318 Y40.588
X40.111 Y40.632
X39.899 Y40.632
G0 Z3.000
G0  X42.439 Y40.632
G0  Z3.000
G01 F400 Z0
G01 F400 Z-0.100
G01F400X42.232 Y40.588
X42.038 Y40.502
X41.867 Y40.377
X41.725 Y40.220
X41.619 Y40.036
X41.553 Y39.835
X41.531 Y39.624
X41.553 Y39.413
X41.619 Y39.212
X41.725 Y39.028
X41.867 Y38.871
X42.038 Y38.746
X42.232 Y38.660
X42.439 Y38.616
X42.651 Y38.616
X42.858 Y38.660
X43.052 Y38.746
X43.223 Y38.871
X43.365 Y39.028
X43.471 Y39.212
X43.537 Y39.413
X43.559 Y39.624
X43.537 Y39.835
X43.471 Y40.036
X43.365 Y40.220
X43.223 Y40.377
X43.052 Y40.502
X42.858 Y40.588
X42.651 Y40.632
X42.439 Y40.632
G0 Z3.000
G0  X39.899 Y38.092
G0  Z3.000
G01 F400 Z0
G01 F400 Z-0.100
G01F400X39.692 Y38.048
X39.498 Y37.962
X39.330 Y37.840
X29.180 Y37.840
X28.974 Y38.046
X28.176 Y38.046
X27.613 Y37.483
X27.613 Y36.685
X27.816 Y36.482
X27.816 Y26.256
X27.613 Y26.053
X27.613 Y25.255
X27.816 Y25.052
X27.816 Y14.826
X27.613 Y14.623
X27.613 Y13.825
X28.176 Y13.262
X28.974 Y13.262
X29.537 Y13.825
X29.537 Y14.623
X29.334 Y14.826
X29.334 Y25.052
X29.537 Y25.255
X29.537 Y25.544
X31.432 Y27.438
X33.066 Y27.438
X33.174 Y27.360
X33.357 Y27.278
X33.554 Y27.236
X33.756 Y27.236
X33.953 Y27.278
X34.137 Y27.360
X34.299 Y27.478
X34.434 Y27.628
X34.535 Y27.802
X34.597 Y27.994
X34.618 Y28.194
X34.597 Y28.394
X34.535 Y28.586
X34.434 Y28.760
X34.299 Y28.910
X34.137 Y29.028
X33.953 Y29.110
X33.756 Y29.152
X33.554 Y29.152
X33.357 Y29.110
X33.174 Y29.028
X33.066 Y28.950
X31.036 Y28.950
X30.880 Y28.917
X30.735 Y28.852
X30.609 Y28.761
X29.334 Y27.485
X29.334 Y36.328
X39.330 Y36.328
X39.498 Y36.206
X39.692 Y36.120
X39.899 Y36.076
X40.111 Y36.076
X40.318 Y36.120
X40.512 Y36.206
X40.683 Y36.331
X40.825 Y36.488
X40.931 Y36.672
X40.997 Y36.873
X41.019 Y37.084
X40.997 Y37.295
X40.931 Y37.496
X40.825 Y37.680
X40.683 Y37.837
X40.512 Y37.962
X40.318 Y38.048
X40.111 Y38.092
X39.899 Y38.092
G0 Z3.000
G0  X42.439 Y38.092
G0  Z3.000
G01 F400 Z0
G01 F400 Z-0.100
G01F400X42.232 Y38.048
X42.038 Y37.962
X41.867 Y37.837
X41.725 Y37.680
X41.619 Y37.496
X41.553 Y37.295
X41.531 Y37.084
X41.553 Y36.873
X41.619 Y36.672
X41.725 Y36.488
X41.867 Y36.331
X42.038 Y36.206
X42.232 Y36.120
X42.439 Y36.076
X42.651 Y36.076
X42.858 Y36.120
X43.052 Y36.206
X43.223 Y36.331
X43.365 Y36.488
X43.471 Y36.672
X43.537 Y36.873
X43.559 Y37.084
X43.537 Y37.295
X43.471 Y37.496
X43.365 Y37.680
X43.223 Y37.837
X43.052 Y37.962
X42.858 Y38.048
X42.651 Y38.092
X42.439 Y38.092
G0 Z3.000
G0  X9.126 Y38.046
G0  Z3.000
G01 F400 Z0
G01 F400 Z-0.100
G01F400X8.563 Y37.483
X8.563 Y36.685
X9.126 Y36.122
X9.924 Y36.122
X10.130 Y36.328
X17.810 Y36.328
X18.016 Y36.122
X18.814 Y36.122
X19.377 Y36.685
X19.377 Y37.483
X18.814 Y38.046
X18.016 Y38.046
X17.810 Y37.840
X10.130 Y37.840
X9.924 Y38.046
X9.126 Y38.046
G0 Z3.000
G0  X39.899 Y35.552
G0  Z3.000
G01 F400 Z0
G01 F400 Z-0.100
G01F400X39.692 Y35.508
X39.498 Y35.422
X39.330 Y35.300
X37.386 Y35.300
X37.230 Y35.267
X37.085 Y35.202
X36.959 Y35.111
X33.506 Y31.681
X33.357 Y31.650
X33.174 Y31.568
X33.011 Y31.450
X32.876 Y31.300
X32.775 Y31.126
X32.713 Y30.934
X32.692 Y30.734
X32.713 Y30.534
X32.775 Y30.342
X32.876 Y30.168
X33.011 Y30.018
X33.174 Y29.900
X33.357 Y29.818
X33.554 Y29.776
X33.756 Y29.776
X33.953 Y29.818
X34.137 Y29.900
X34.299 Y30.018
X34.434 Y30.168
X34.535 Y30.342
X34.597 Y30.534
X34.605 Y30.612
X37.782 Y33.788
X39.330 Y33.788
X39.498 Y33.666
X39.692 Y33.580
X39.899 Y33.536
X40.111 Y33.536
X40.318 Y33.580
X40.512 Y33.666
X40.683 Y33.791
X40.825 Y33.948
X40.931 Y34.132
X40.997 Y34.333
X41.019 Y34.544
X40.997 Y34.755
X40.931 Y34.956
X40.825 Y35.140
X40.683 Y35.297
X40.512 Y35.422
X40.318 Y35.508
X40.111 Y35.552
X39.899 Y35.552
G0 Z3.000
G0  X42.439 Y35.552
G0  Z3.000
G01 F400 Z0
G01 F400 Z-0.100
G01F400X42.232 Y35.508
X42.038 Y35.422
X41.867 Y35.297
X41.725 Y35.140
X41.619 Y34.956
X41.553 Y34.755
X41.531 Y34.544
X41.553 Y34.333
X41.619 Y34.132
X41.725 Y33.948
X41.867 Y33.791
X42.038 Y33.666
X42.232 Y33.580
X42.439 Y33.536
X42.651 Y33.536
X42.858 Y33.580
X43.052 Y33.666
X43.223 Y33.791
X43.365 Y33.948
X43.471 Y34.132
X43.537 Y34.333
X43.559 Y34.544
X43.537 Y34.755
X43.471 Y34.956
X43.365 Y35.140
X43.223 Y35.297
X43.052 Y35.422
X42.858 Y35.508
X42.651 Y35.552
X42.439 Y35.552
G0 Z3.000
G0  X39.899 Y33.012
G0  Z3.000
G01 F400 Z0
G01 F400 Z-0.100
G01F400X39.692 Y32.968
X39.498 Y32.882
X39.327 Y32.757
X39.185 Y32.600
X39.079 Y32.416
X39.013 Y32.215
X38.991 Y32.004
X39.013 Y31.793
X39.079 Y31.592
X39.185 Y31.408
X39.327 Y31.251
X39.498 Y31.126
X39.692 Y31.040
X39.899 Y30.996
X40.111 Y30.996
X40.318 Y31.040
X40.512 Y31.126
X40.683 Y31.251
X40.825 Y31.408
X40.931 Y31.592
X40.997 Y31.793
X41.019 Y32.004
X40.997 Y32.215
X40.931 Y32.416
X40.825 Y32.600
X40.683 Y32.757
X40.512 Y32.882
X40.318 Y32.968
X40.111 Y33.012
X39.899 Y33.012
G0 Z3.000
G0  X42.439 Y33.012
G0  Z3.000
G01 F400 Z0
G01 F400 Z-0.100
G01F400X42.232 Y32.968
X42.038 Y32.882
X41.867 Y32.757
X41.725 Y32.600
X41.619 Y32.416
X41.553 Y32.215
X41.531 Y32.004
X41.553 Y31.793
X41.619 Y31.592
X41.725 Y31.408
X41.867 Y31.251
X42.038 Y31.126
X42.232 Y31.040
X42.439 Y30.996
X42.651 Y30.996
X42.858 Y31.040
X43.052 Y31.126
X43.223 Y31.251
X43.365 Y31.408
X43.471 Y31.592
X43.537 Y31.793
X43.559 Y32.004
X43.537 Y32.215
X43.471 Y32.416
X43.365 Y32.600
X43.223 Y32.757
X43.052 Y32.882
X42.858 Y32.968
X42.651 Y33.012
X42.439 Y33.012
G0 Z3.000
G0  X39.899 Y30.472
G0  Z3.000
G01 F400 Z0
G01 F400 Z-0.100
G01F400X39.692 Y30.428
X39.498 Y30.342
X39.327 Y30.217
X39.185 Y30.060
X39.079 Y29.876
X39.013 Y29.675
X38.991 Y29.464
X39.013 Y29.253
X39.079 Y29.052
X39.185 Y28.868
X39.327 Y28.711
X39.498 Y28.586
X39.692 Y28.500
X39.899 Y28.456
X40.111 Y28.456
X40.318 Y28.500
X40.512 Y28.586
X40.683 Y28.711
X40.825 Y28.868
X40.931 Y29.052
X40.997 Y29.253
X41.019 Y29.464
X40.997 Y29.675
X40.931 Y29.876
X40.825 Y30.060
X40.683 Y30.217
X40.512 Y30.342
X40.318 Y30.428
X40.111 Y30.472
X39.899 Y30.472
G0 Z3.000
G0  X39.899 Y27.932
G0  Z3.000
G01 F400 Z0
G01 F400 Z-0.100
G01F400X39.692 Y27.888
X39.498 Y27.802
X39.327 Y27.677
X39.185 Y27.520
X39.079 Y27.336
X39.013 Y27.135
X38.991 Y26.924
X39.013 Y26.713
X39.079 Y26.512
X39.185 Y26.328
X39.327 Y26.171
X39.498 Y26.046
X39.692 Y25.960
X39.899 Y25.916
X40.111 Y25.916
X40.318 Y25.960
X40.512 Y26.046
X40.683 Y26.171
X40.825 Y26.328
X40.931 Y26.512
X40.997 Y26.713
X41.019 Y26.924
X40.997 Y27.135
X40.931 Y27.336
X40.825 Y27.520
X40.683 Y27.677
X40.512 Y27.802
X40.318 Y27.888
X40.111 Y27.932
X39.899 Y27.932
G0 Z3.000
G0  X42.439 Y27.932
G0  Z3.000
G01 F400 Z0
G01 F400 Z-0.100
G01F400X42.232 Y27.888
X42.038 Y27.802
X41.867 Y27.677
X41.725 Y27.520
X41.619 Y27.336
X41.553 Y27.135
X41.531 Y26.924
X41.553 Y26.713
X41.619 Y26.512
X41.725 Y26.328
X41.867 Y26.171
X42.038 Y26.046
X42.232 Y25.960
X42.439 Y25.916
X42.651 Y25.916
X42.858 Y25.960
X43.052 Y26.046
X43.220 Y26.168
X46.927 Y26.168
X49.025 Y24.071
X49.025 Y7.806
X46.038 Y4.820
X3.492 Y4.820
X2.664 Y5.647
X2.664 Y24.071
X3.492 Y24.898
X6.380 Y24.898
X6.586 Y24.692
X7.384 Y24.692
X7.947 Y25.255
X7.947 Y26.053
X7.384 Y26.616
X6.586 Y26.616
X6.380 Y26.410
X3.096 Y26.410
X2.940 Y26.377
X2.795 Y26.312
X2.669 Y26.221
X1.390 Y24.941
X1.290 Y24.831
X1.211 Y24.693
X1.162 Y24.542
X1.146 Y24.390
X1.146 Y5.328
X1.162 Y5.176
X1.211 Y5.025
X1.290 Y4.887
X1.390 Y4.777
X2.669 Y3.497
X2.795 Y3.406
X2.940 Y3.341
X3.096 Y3.308
X46.434 Y3.308
X46.590 Y3.341
X46.735 Y3.406
X46.861 Y3.497
X50.299 Y6.936
X50.399 Y7.046
X50.478 Y7.184
X50.527 Y7.335
X50.543 Y7.487
X50.543 Y24.390
X50.527 Y24.542
X50.478 Y24.693
X50.399 Y24.831
X50.299 Y24.941
X47.750 Y27.491
X47.624 Y27.582
X47.479 Y27.647
X47.323 Y27.680
X43.220 Y27.680
X43.052 Y27.802
X42.858 Y27.888
X42.651 Y27.932
X42.439 Y27.932
G0 Z3.000
G0  X9.126 Y26.616
G0  Z3.000
G01 F400 Z0
G01 F400 Z-0.100
G01F400X8.563 Y26.053
X8.563 Y25.255
X9.126 Y24.692
X9.924 Y24.692
X10.130 Y24.898
X17.810 Y24.898
X18.016 Y24.692
X18.814 Y24.692
X19.377 Y25.255
X19.377 Y26.053
X18.814 Y26.616
X18.016 Y26.616
X17.810 Y26.410
X10.130 Y26.410
X9.924 Y26.616
X9.126 Y26.616
G0 Z3.000
G0  X33.554 Y26.612
G0  Z3.000
G01 F400 Z0
G01 F400 Z-0.100
G01F400X33.357 Y26.570
X33.174 Y26.488
X33.011 Y26.370
X32.876 Y26.220
X32.775 Y26.046
X32.713 Y25.854
X32.692 Y25.654
X32.713 Y25.454
X32.775 Y25.262
X32.876 Y25.088
X33.011 Y24.938
X33.174 Y24.820
X33.357 Y24.738
X33.554 Y24.696
X33.756 Y24.696
X33.953 Y24.738
X34.137 Y24.820
X34.299 Y24.938
X34.434 Y25.088
X34.535 Y25.262
X34.597 Y25.454
X34.618 Y25.654
X34.597 Y25.854
X34.535 Y26.046
X34.434 Y26.220
X34.299 Y26.370
X34.137 Y26.488
X33.953 Y26.570
X33.756 Y26.612
X33.554 Y26.612
G0 Z3.000
G0  X39.899 Y25.392
G0  Z3.000
G01 F400 Z0
G01 F400 Z-0.100
G01F400X39.692 Y25.348
X39.498 Y25.262
X39.327 Y25.137
X39.185 Y24.980
X39.079 Y24.796
X39.013 Y24.595
X38.991 Y24.384
X39.013 Y24.173
X39.079 Y23.972
X39.185 Y23.788
X39.327 Y23.631
X39.498 Y23.506
X39.692 Y23.420
X39.899 Y23.376
X40.111 Y23.376
X40.318 Y23.420
X40.512 Y23.506
X40.683 Y23.631
X40.825 Y23.788
X40.931 Y23.972
X40.997 Y24.173
X41.019 Y24.384
X40.997 Y24.595
X40.931 Y24.796
X40.825 Y24.980
X40.683 Y25.137
X40.512 Y25.262
X40.318 Y25.348
X40.111 Y25.392
X39.899 Y25.392
G0 Z3.000
G0  X42.439 Y25.392
G0  Z3.000
G01 F400 Z0
G01 F400 Z-0.100
G01F400X42.232 Y25.348
X42.038 Y25.262
X41.867 Y25.137
X41.725 Y24.980
X41.619 Y24.796
X41.553 Y24.595
X41.531 Y24.384
X41.553 Y24.173
X41.619 Y23.972
X41.725 Y23.788
X41.867 Y23.631
X42.038 Y23.506
X42.232 Y23.420
X42.439 Y23.376
X42.651 Y23.376
X42.858 Y23.420
X43.052 Y23.506
X43.220 Y23.628
X44.326 Y23.628
X44.326 Y9.900
X7.744 Y9.900
X7.744 Y13.622
X7.947 Y13.825
X7.947 Y14.623
X7.384 Y15.186
X6.586 Y15.186
X6.023 Y14.623
X6.023 Y13.825
X6.226 Y13.622
X6.226 Y9.138
X6.242 Y8.986
X6.291 Y8.835
X6.370 Y8.697
X6.477 Y8.579
X6.605 Y8.486
X6.750 Y8.421
X6.906 Y8.388
X45.164 Y8.388
X45.320 Y8.421
X45.465 Y8.486
X45.593 Y8.579
X45.700 Y8.697
X45.779 Y8.835
X45.828 Y8.986
X45.844 Y9.138
X45.844 Y24.390
X45.828 Y24.542
X45.779 Y24.693
X45.700 Y24.831
X45.593 Y24.949
X45.465 Y25.042
X45.320 Y25.107
X45.164 Y25.140
X43.220 Y25.140
X43.052 Y25.262
X42.858 Y25.348
X42.651 Y25.392
X42.439 Y25.392
G0 Z3.000
G0  X39.899 Y22.852
G0  Z3.000
G01 F400 Z0
G01 F400 Z-0.100
G01F400X39.692 Y22.808
X39.498 Y22.722
X39.327 Y22.597
X39.185 Y22.440
X39.079 Y22.256
X39.013 Y22.055
X38.991 Y21.844
X39.013 Y21.633
X39.079 Y21.432
X39.185 Y21.248
X39.327 Y21.091
X39.498 Y20.966
X39.692 Y20.880
X39.899 Y20.836
X40.111 Y20.836
X40.318 Y20.880
X40.512 Y20.966
X40.683 Y21.091
X40.825 Y21.248
X40.931 Y21.432
X40.997 Y21.633
X41.019 Y21.844
X40.997 Y22.055
X40.931 Y22.256
X40.825 Y22.440
X40.683 Y22.597
X40.512 Y22.722
X40.318 Y22.808
X40.111 Y22.852
X39.899 Y22.852
G0 Z3.000
G0  X42.439 Y22.852
G0  Z3.000
G01 F400 Z0
G01 F400 Z-0.100
G01F400X42.232 Y22.808
X42.038 Y22.722
X41.867 Y22.597
X41.725 Y22.440
X41.619 Y22.256
X41.553 Y22.055
X41.531 Y21.844
X41.553 Y21.633
X41.619 Y21.432
X41.725 Y21.248
X41.867 Y21.091
X42.038 Y20.966
X42.232 Y20.880
X42.439 Y20.836
X42.651 Y20.836
X42.858 Y20.880
X43.052 Y20.966
X43.223 Y21.091
X43.365 Y21.248
X43.471 Y21.432
X43.537 Y21.633
X43.559 Y21.844
X43.537 Y22.055
X43.471 Y22.256
X43.365 Y22.440
X43.223 Y22.597
X43.052 Y22.722
X42.858 Y22.808
X42.651 Y22.852
X42.439 Y22.852
G0 Z3.000
G0  X42.439 Y20.312
G0  Z3.000
G01 F400 Z0
G01 F400 Z-0.100
G01F400X42.232 Y20.268
X42.038 Y20.182
X41.867 Y20.057
X41.725 Y19.900
X41.619 Y19.716
X41.553 Y19.515
X41.531 Y19.304
X41.553 Y19.093
X41.619 Y18.892
X41.725 Y18.708
X41.867 Y18.551
X42.038 Y18.426
X42.232 Y18.340
X42.439 Y18.296
X42.651 Y18.296
X42.858 Y18.340
X43.052 Y18.426
X43.223 Y18.551
X43.365 Y18.708
X43.471 Y18.892
X43.537 Y19.093
X43.559 Y19.304
X43.537 Y19.515
X43.471 Y19.716
X43.365 Y19.900
X43.223 Y20.057
X43.052 Y20.182
X42.858 Y20.268
X42.651 Y20.312
X42.439 Y20.312
G0 Z3.000
G0  X39.899 Y20.312
G0  Z3.000
G01 F400 Z0
G01 F400 Z-0.100
G01F400X39.692 Y20.268
X39.498 Y20.182
X39.327 Y20.057
X39.185 Y19.900
X39.079 Y19.716
X39.013 Y19.515
X38.991 Y19.304
X39.013 Y19.093
X39.079 Y18.892
X39.185 Y18.708
X39.327 Y18.551
X39.498 Y18.426
X39.692 Y18.340
X39.899 Y18.296
X40.111 Y18.296
X40.318 Y18.340
X40.512 Y18.426
X40.683 Y18.551
X40.825 Y18.708
X40.931 Y18.892
X40.997 Y19.093
X41.019 Y19.304
X40.997 Y19.515
X40.931 Y19.716
X40.825 Y19.900
X40.683 Y20.057
X40.512 Y20.182
X40.318 Y20.268
X40.111 Y20.312
X39.899 Y20.312
G0 Z3.000
G0  X42.439 Y17.772
G0  Z3.000
G01 F400 Z0
G01 F400 Z-0.100
G01F400X42.232 Y17.728
X42.038 Y17.642
X41.867 Y17.517
X41.725 Y17.360
X41.619 Y17.176
X41.553 Y16.975
X41.531 Y16.764
X41.553 Y16.553
X41.619 Y16.352
X41.725 Y16.168
X41.867 Y16.011
X42.038 Y15.886
X42.232 Y15.800
X42.439 Y15.756
X42.651 Y15.756
X42.858 Y15.800
X43.052 Y15.886
X43.223 Y16.011
X43.365 Y16.168
X43.471 Y16.352
X43.537 Y16.553
X43.559 Y16.764
X43.537 Y16.975
X43.471 Y17.176
X43.365 Y17.360
X43.223 Y17.517
X43.052 Y17.642
X42.858 Y17.728
X42.651 Y17.772
X42.439 Y17.772
G0 Z3.000
G0  X39.899 Y17.772
G0  Z3.000
G01 F400 Z0
G01 F400 Z-0.100
G01F400X39.692 Y17.728
X39.498 Y17.642
X39.327 Y17.517
X39.185 Y17.360
X39.079 Y17.176
X39.013 Y16.975
X38.991 Y16.764
X39.013 Y16.553
X39.079 Y16.352
X39.185 Y16.168
X39.327 Y16.011
X39.498 Y15.886
X39.692 Y15.800
X39.899 Y15.756
X40.111 Y15.756
X40.318 Y15.800
X40.512 Y15.886
X40.683 Y16.011
X40.825 Y16.168
X40.931 Y16.352
X40.997 Y16.553
X41.019 Y16.764
X40.997 Y16.975
X40.931 Y17.176
X40.825 Y17.360
X40.683 Y17.517
X40.512 Y17.642
X40.318 Y17.728
X40.111 Y17.772
X39.899 Y17.772
G0 Z3.000
G0  X42.439 Y15.232
G0  Z3.000
G01 F400 Z0
G01 F400 Z-0.100
G01F400X42.232 Y15.188
X42.038 Y15.102
X41.867 Y14.977
X41.725 Y14.820
X41.619 Y14.636
X41.553 Y14.435
X41.531 Y14.224
X41.553 Y14.013
X41.619 Y13.812
X41.725 Y13.628
X41.867 Y13.471
X42.038 Y13.346
X42.232 Y13.260
X42.439 Y13.216
X42.651 Y13.216
X42.858 Y13.260
X43.052 Y13.346
X43.223 Y13.471
X43.365 Y13.628
X43.471 Y13.812
X43.537 Y14.013
X43.559 Y14.224
X43.537 Y14.435
X43.471 Y14.636
X43.365 Y14.820
X43.223 Y14.977
X43.052 Y15.102
X42.858 Y15.188
X42.651 Y15.232
X42.439 Y15.232
G0 Z3.000
G0  X39.899 Y15.232
G0  Z3.000
G01 F400 Z0
G01 F400 Z-0.100
G01F400X39.692 Y15.188
X39.498 Y15.102
X39.327 Y14.977
X39.185 Y14.820
X39.079 Y14.636
X39.013 Y14.435
X38.991 Y14.224
X39.013 Y14.013
X39.079 Y13.812
X39.185 Y13.628
X39.327 Y13.471
X39.498 Y13.346
X39.692 Y13.260
X39.899 Y13.216
X40.111 Y13.216
X40.318 Y13.260
X40.512 Y13.346
X40.683 Y13.471
X40.825 Y13.628
X40.931 Y13.812
X40.997 Y14.013
X41.019 Y14.224
X40.997 Y14.435
X40.931 Y14.636
X40.825 Y14.820
X40.683 Y14.977
X40.512 Y15.102
X40.318 Y15.188
X40.111 Y15.232
X39.899 Y15.232
G0 Z3.000
G0  X9.126 Y15.186
G0  Z3.000
G01 F400 Z0
G01 F400 Z-0.100
G01F400X8.563 Y14.623
X8.563 Y13.825
X9.126 Y13.262
X9.924 Y13.262
X10.130 Y13.468
X17.810 Y13.468
X18.016 Y13.262
X18.814 Y13.262
X19.377 Y13.825
X19.377 Y14.623
X18.814 Y15.186
X18.016 Y15.186
X17.810 Y14.980
X10.130 Y14.980
X9.924 Y15.186
X9.126 Y15.186
G0 Z3.000
G0  X42.439 Y12.692
G0  Z3.000
G01 F400 Z0
G01 F400 Z-0.100
G01F400X42.232 Y12.648
X42.038 Y12.562
X41.867 Y12.437
X41.725 Y12.280
X41.619 Y12.096
X41.553 Y11.895
X41.531 Y11.684
X41.553 Y11.473
X41.619 Y11.272
X41.725 Y11.088
X41.867 Y10.931
X42.038 Y10.806
X42.232 Y10.720
X42.439 Y10.676
X42.651 Y10.676
X42.858 Y10.720
X43.052 Y10.806
X43.223 Y10.931
X43.365 Y11.088
X43.471 Y11.272
X43.537 Y11.473
X43.559 Y11.684
X43.537 Y11.895
X43.471 Y12.096
X43.365 Y12.280
X43.223 Y12.437
X43.052 Y12.562
X42.858 Y12.648
X42.651 Y12.692
X42.439 Y12.692
G0 Z3.000
G0  X39.899 Y12.692
G0  Z3.000
G01 F400 Z0
G01 F400 Z-0.100
G01F400X39.692 Y12.648
X39.498 Y12.562
X39.327 Y12.437
X39.185 Y12.280
X39.079 Y12.096
X39.013 Y11.895
X38.991 Y11.684
X39.013 Y11.473
X39.079 Y11.272
X39.185 Y11.088
X39.327 Y10.931
X39.498 Y10.806
X39.692 Y10.720
X39.899 Y10.676
X40.111 Y10.676
X40.318 Y10.720
X40.512 Y10.806
X40.683 Y10.931
X40.825 Y11.088
X40.931 Y11.272
X40.997 Y11.473
X41.019 Y11.684
X40.997 Y11.895
X40.931 Y12.096
X40.825 Y12.280
X40.683 Y12.437
X40.512 Y12.562
X40.318 Y12.648
X40.111 Y12.692
X39.899 Y12.692
G0 Z3.000
G0  X10.692 Y49.493
G0  Z3.000
G01 F400 Z0
G01 F400 Z-0.100
G01F400X10.491 Y49.450
X10.303 Y49.367
X10.144 Y49.251
X6.308 Y45.415
X6.189 Y45.283
X6.086 Y45.104
X6.022 Y44.909
X6.003 Y44.722
X6.003 Y37.778
X5.799 Y37.575
X5.799 Y36.593
X6.494 Y35.898
X7.476 Y35.898
X8.171 Y36.593
X8.171 Y37.575
X7.968 Y37.778
X7.968 Y44.298
X11.204 Y47.535
X47.216 Y47.535
X48.802 Y45.949
X48.802 Y32.410
X46.835 Y30.443
X43.293 Y30.443
X43.164 Y30.537
X42.928 Y30.642
X42.674 Y30.696
X42.416 Y30.696
X42.162 Y30.642
X41.926 Y30.537
X41.716 Y30.384
X41.543 Y30.192
X41.414 Y29.968
X41.334 Y29.722
X41.307 Y29.464
X41.334 Y29.207
X41.414 Y28.960
X41.543 Y28.736
X41.716 Y28.544
X41.926 Y28.392
X42.162 Y28.286
X42.416 Y28.232
X42.674 Y28.232
X42.928 Y28.286
X43.164 Y28.392
X43.293 Y28.485
X47.347 Y28.485
X47.548 Y28.528
X47.736 Y28.612
X47.895 Y28.727
X50.461 Y31.293
X50.580 Y31.425
X50.683 Y31.604
X50.747 Y31.799
X50.767 Y31.986
X50.767 Y46.373
X50.747 Y46.560
X50.683 Y46.755
X50.580 Y46.934
X50.461 Y47.066
X48.276 Y49.251
X48.117 Y49.367
X47.929 Y49.450
X47.728 Y49.493
X10.692 Y49.493
G0 Z3.000
G0  X41.309 Y43.401
G0  Z3.000
G01 F400 Z0
G01 F400 Z-0.100
G01F400X41.309 Y40.928
X43.782 Y40.928
X43.782 Y43.401
X41.309 Y43.401
G0 Z3.000
G0  X39.876 Y43.396
G0  Z3.000
G01 F400 Z0
G01 F400 Z-0.100
G01F400X39.622 Y43.342
X39.386 Y43.236
X39.176 Y43.084
X39.003 Y42.892
X38.874 Y42.668
X38.794 Y42.422
X38.767 Y42.164
X38.794 Y41.907
X38.874 Y41.660
X39.003 Y41.436
X39.176 Y41.244
X39.386 Y41.092
X39.622 Y40.986
X39.876 Y40.932
X40.134 Y40.932
X40.388 Y40.986
X40.624 Y41.092
X40.834 Y41.244
X41.007 Y41.436
X41.136 Y41.660
X41.216 Y41.907
X41.243 Y42.164
X41.216 Y42.422
X41.136 Y42.668
X41.007 Y42.892
X40.834 Y43.084
X40.624 Y43.236
X40.388 Y43.342
X40.134 Y43.396
X39.876 Y43.396
G0 Z3.000
G0  X42.416 Y40.856
G0  Z3.000
G01 F400 Z0
G01 F400 Z-0.100
G01F400X42.162 Y40.802
X41.926 Y40.697
X41.716 Y40.544
X41.543 Y40.352
X41.414 Y40.128
X41.334 Y39.882
X41.307 Y39.624
X41.334 Y39.367
X41.414 Y39.120
X41.543 Y38.896
X41.716 Y38.704
X41.926 Y38.552
X42.162 Y38.446
X42.416 Y38.392
X42.674 Y38.392
X42.928 Y38.446
X43.164 Y38.552
X43.374 Y38.704
X43.547 Y38.896
X43.676 Y39.120
X43.756 Y39.367
X43.783 Y39.624
X43.756 Y39.882
X43.676 Y40.128
X43.547 Y40.352
X43.374 Y40.544
X43.164 Y40.697
X42.928 Y40.802
X42.674 Y40.856
X42.416 Y40.856
G0 Z3.000
G0  X39.876 Y40.856
G0  Z3.000
G01 F400 Z0
G01 F400 Z-0.100
G01F400X39.622 Y40.802
X39.386 Y40.697
X39.176 Y40.544
X39.003 Y40.352
X38.874 Y40.128
X38.794 Y39.882
X38.767 Y39.624
X38.794 Y39.367
X38.874 Y39.120
X39.003 Y38.896
X39.176 Y38.704
X39.386 Y38.552
X39.622 Y38.446
X39.876 Y38.392
X40.134 Y38.392
X40.388 Y38.446
X40.624 Y38.552
X40.834 Y38.704
X41.007 Y38.896
X41.136 Y39.120
X41.216 Y39.367
X41.243 Y39.624
X41.216 Y39.882
X41.136 Y40.128
X41.007 Y40.352
X40.834 Y40.544
X40.624 Y40.697
X40.388 Y40.802
X40.134 Y40.856
X39.876 Y40.856
G0 Z3.000
G0  X42.416 Y38.316
G0  Z3.000
G01 F400 Z0
G01 F400 Z-0.100
G01F400X42.162 Y38.262
X41.926 Y38.157
X41.716 Y38.004
X41.543 Y37.812
X41.414 Y37.588
X41.334 Y37.342
X41.307 Y37.084
X41.334 Y36.827
X41.414 Y36.580
X41.543 Y36.356
X41.716 Y36.164
X41.926 Y36.012
X42.162 Y35.906
X42.416 Y35.852
X42.674 Y35.852
X42.928 Y35.906
X43.164 Y36.012
X43.374 Y36.164
X43.547 Y36.356
X43.676 Y36.580
X43.756 Y36.827
X43.783 Y37.084
X43.756 Y37.342
X43.676 Y37.588
X43.547 Y37.812
X43.374 Y38.004
X43.164 Y38.157
X42.928 Y38.262
X42.674 Y38.316
X42.416 Y38.316
G0 Z3.000
G0  X39.876 Y38.316
G0  Z3.000
G01 F400 Z0
G01 F400 Z-0.100
G01F400X39.622 Y38.262
X39.386 Y38.157
X39.257 Y38.063
X29.273 Y38.063
X29.066 Y38.270
X28.084 Y38.270
X27.389 Y37.575
X27.389 Y36.593
X27.593 Y36.390
X27.593 Y26.348
X27.389 Y26.145
X27.389 Y25.163
X27.593 Y24.960
X27.593 Y14.918
X27.389 Y14.715
X27.389 Y13.733
X28.084 Y13.038
X29.066 Y13.038
X29.761 Y13.733
X29.761 Y14.715
X29.558 Y14.918
X29.558 Y24.960
X29.761 Y25.163
X29.761 Y25.452
X31.524 Y27.215
X32.993 Y27.215
X33.061 Y27.166
X33.288 Y27.065
X33.531 Y27.013
X33.779 Y27.013
X34.022 Y27.065
X34.249 Y27.166
X34.450 Y27.312
X34.616 Y27.496
X34.740 Y27.711
X34.817 Y27.947
X34.843 Y28.194
X34.817 Y28.441
X34.740 Y28.677
X34.616 Y28.892
X34.450 Y29.077
X34.249 Y29.223
X34.022 Y29.323
X33.779 Y29.375
X33.531 Y29.375
X33.288 Y29.323
X33.061 Y29.223
X32.993 Y29.173
X31.012 Y29.173
X30.811 Y29.130
X30.623 Y29.047
X30.464 Y28.931
X29.558 Y28.025
X29.558 Y36.105
X39.257 Y36.105
X39.386 Y36.012
X39.622 Y35.906
X39.876 Y35.852
X40.134 Y35.852
X40.388 Y35.906
X40.624 Y36.012
X40.834 Y36.164
X41.007 Y36.356
X41.136 Y36.580
X41.216 Y36.827
X41.243 Y37.084
X41.216 Y37.342
X41.136 Y37.588
X41.007 Y37.812
X40.834 Y38.004
X40.624 Y38.157
X40.388 Y38.262
X40.134 Y38.316
X39.876 Y38.316
G0 Z3.000
G0  X9.034 Y38.270
G0  Z3.000
G01 F400 Z0
G01 F400 Z-0.100
G01F400X8.339 Y37.575
X8.339 Y36.593
X9.034 Y35.898
X10.016 Y35.898
X10.223 Y36.105
X17.717 Y36.105
X17.924 Y35.898
X18.906 Y35.898
X19.601 Y36.593
X19.601 Y37.575
X18.906 Y38.270
X17.924 Y38.270
X17.717 Y38.063
X10.223 Y38.063
X10.016 Y38.270
X9.034 Y38.270
G0 Z3.000
G0  X42.416 Y35.776
G0  Z3.000
G01 F400 Z0
G01 F400 Z-0.100
G01F400X42.162 Y35.722
X41.926 Y35.617
X41.716 Y35.464
X41.543 Y35.272
X41.414 Y35.048
X41.334 Y34.802
X41.307 Y34.544
X41.334 Y34.287
X41.414 Y34.040
X41.543 Y33.816
X41.716 Y33.624
X41.926 Y33.471
X42.162 Y33.366
X42.416 Y33.312
X42.674 Y33.312
X42.928 Y33.366
X43.164 Y33.471
X43.374 Y33.624
X43.547 Y33.816
X43.676 Y34.040
X43.756 Y34.287
X43.783 Y34.544
X43.756 Y34.802
X43.676 Y35.048
X43.547 Y35.272
X43.374 Y35.464
X43.164 Y35.617
X42.928 Y35.722
X42.674 Y35.776
X42.416 Y35.776
G0 Z3.000
G0  X39.876 Y35.776
G0  Z3.000
G01 F400 Z0
G01 F400 Z-0.100
G01F400X39.622 Y35.722
X39.386 Y35.617
X39.257 Y35.523
X37.362 Y35.523
X37.161 Y35.480
X36.973 Y35.397
X36.814 Y35.281
X33.395 Y31.886
X33.288 Y31.863
X33.061 Y31.763
X32.860 Y31.617
X32.694 Y31.432
X32.570 Y31.217
X32.493 Y30.981
X32.467 Y30.734
X32.493 Y30.487
X32.570 Y30.251
X32.694 Y30.036
X32.860 Y29.852
X33.061 Y29.706
X33.288 Y29.605
X33.531 Y29.553
X33.779 Y29.553
X34.022 Y29.605
X34.249 Y29.706
X34.450 Y29.852
X34.616 Y30.036
X34.740 Y30.251
X34.817 Y30.487
X34.819 Y30.510
X37.874 Y33.565
X39.257 Y33.565
X39.386 Y33.471
X39.622 Y33.366
X39.876 Y33.312
X40.134 Y33.312
X40.388 Y33.366
X40.624 Y33.471
X40.834 Y33.624
X41.007 Y33.816
X41.136 Y34.040
X41.216 Y34.287
X41.243 Y34.544
X41.216 Y34.802
X41.136 Y35.048
X41.007 Y35.272
X40.834 Y35.464
X40.624 Y35.617
X40.388 Y35.722
X40.134 Y35.776
X39.876 Y35.776
G0 Z3.000
G0  X42.416 Y33.236
G0  Z3.000
G01 F400 Z0
G01 F400 Z-0.100
G01F400X42.162 Y33.182
X41.926 Y33.077
X41.716 Y32.924
X41.543 Y32.732
X41.414 Y32.508
X41.334 Y32.261
X41.307 Y32.004
X41.334 Y31.747
X41.414 Y31.500
X41.543 Y31.276
X41.716 Y31.084
X41.926 Y30.931
X42.162 Y30.826
X42.416 Y30.772
X42.674 Y30.772
X42.928 Y30.826
X43.164 Y30.931
X43.374 Y31.084
X43.547 Y31.276
X43.676 Y31.500
X43.756 Y31.747
X43.783 Y32.004
X43.756 Y32.261
X43.676 Y32.508
X43.547 Y32.732
X43.374 Y32.924
X43.164 Y33.077
X42.928 Y33.182
X42.674 Y33.236
X42.416 Y33.236
G0 Z3.000
G0  X39.876 Y33.236
G0  Z3.000
G01 F400 Z0
G01 F400 Z-0.100
G01F400X39.622 Y33.182
X39.386 Y33.077
X39.176 Y32.924
X39.003 Y32.732
X38.874 Y32.508
X38.794 Y32.261
X38.767 Y32.004
X38.794 Y31.747
X38.874 Y31.500
X39.003 Y31.276
X39.176 Y31.084
X39.386 Y30.931
X39.622 Y30.826
X39.876 Y30.772
X40.134 Y30.772
X40.388 Y30.826
X40.624 Y30.931
X40.834 Y31.084
X41.007 Y31.276
X41.136 Y31.500
X41.216 Y31.747
X41.243 Y32.004
X41.216 Y32.261
X41.136 Y32.508
X41.007 Y32.732
X40.834 Y32.924
X40.624 Y33.077
X40.388 Y33.182
X40.134 Y33.236
X39.876 Y33.236
G0 Z3.000
G0  X39.876 Y30.696
G0  Z3.000
G01 F400 Z0
G01 F400 Z-0.100
G01F400X39.622 Y30.642
X39.386 Y30.537
X39.176 Y30.384
X39.003 Y30.192
X38.874 Y29.968
X38.794 Y29.722
X38.767 Y29.464
X38.794 Y29.207
X38.874 Y28.960
X39.003 Y28.736
X39.176 Y28.544
X39.386 Y28.392
X39.622 Y28.286
X39.876 Y28.232
X40.134 Y28.232
X40.388 Y28.286
X40.624 Y28.392
X40.834 Y28.544
X41.007 Y28.736
X41.136 Y28.960
X41.216 Y29.207
X41.243 Y29.464
X41.216 Y29.722
X41.136 Y29.968
X41.007 Y30.192
X40.834 Y30.384
X40.624 Y30.537
X40.388 Y30.642
X40.134 Y30.696
X39.876 Y30.696
G0 Z3.000
G0  X42.416 Y28.156
G0  Z3.000
G01 F400 Z0
G01 F400 Z-0.100
G01F400X42.162 Y28.102
X41.926 Y27.997
X41.716 Y27.844
X41.543 Y27.652
X41.414 Y27.428
X41.334 Y27.181
X41.307 Y26.924
X41.334 Y26.667
X41.414 Y26.420
X41.543 Y26.196
X41.716 Y26.004
X41.926 Y25.852
X42.162 Y25.746
X42.416 Y25.692
X42.674 Y25.692
X42.928 Y25.746
X43.164 Y25.852
X43.293 Y25.945
X46.835 Y25.945
X48.802 Y23.978
X48.802 Y7.899
X45.946 Y5.043
X3.584 Y5.043
X2.888 Y5.740
X2.888 Y23.978
X3.584 Y24.675
X6.287 Y24.675
X6.494 Y24.468
X7.476 Y24.468
X8.171 Y25.163
X8.171 Y26.145
X7.476 Y26.840
X6.494 Y26.840
X6.287 Y26.633
X3.072 Y26.633
X2.871 Y26.590
X2.683 Y26.507
X2.524 Y26.391
X1.228 Y25.095
X1.109 Y24.963
X1.006 Y24.784
X0.942 Y24.589
X0.923 Y24.402
X0.923 Y5.316
X0.942 Y5.129
X1.006 Y4.934
X1.109 Y4.755
X1.228 Y4.623
X2.524 Y3.327
X2.683 Y3.212
X2.871 Y3.128
X3.072 Y3.085
X46.458 Y3.085
X46.659 Y3.128
X46.847 Y3.212
X47.006 Y3.327
X50.461 Y6.782
X50.580 Y6.914
X50.683 Y7.093
X50.747 Y7.288
X50.767 Y7.475
X50.767 Y24.402
X50.747 Y24.589
X50.683 Y24.784
X50.580 Y24.963
X50.461 Y25.095
X47.895 Y27.661
X47.736 Y27.777
X47.548 Y27.860
X47.347 Y27.903
X43.293 Y27.903
X43.164 Y27.997
X42.928 Y28.102
X42.674 Y28.156
X42.416 Y28.156
G0 Z3.000
G0  X39.876 Y28.156
G0  Z3.000
G01 F400 Z0
G01 F400 Z-0.100
G01F400X39.622 Y28.102
X39.386 Y27.997
X39.176 Y27.844
X39.003 Y27.652
X38.874 Y27.428
X38.794 Y27.181
X38.767 Y26.924
X38.794 Y26.667
X38.874 Y26.420
X39.003 Y26.196
X39.176 Y26.004
X39.386 Y25.852
X39.622 Y25.746
X39.876 Y25.692
X40.134 Y25.692
X40.388 Y25.746
X40.624 Y25.852
X40.834 Y26.004
X41.007 Y26.196
X41.136 Y26.420
X41.216 Y26.667
X41.243 Y26.924
X41.216 Y27.181
X41.136 Y27.428
X41.007 Y27.652
X40.834 Y27.844
X40.624 Y27.997
X40.388 Y28.102
X40.134 Y28.156
X39.876 Y28.156
G0 Z3.000
G0  X9.034 Y26.840
G0  Z3.000
G01 F400 Z0
G01 F400 Z-0.100
G01F400X8.339 Y26.145
X8.339 Y25.163
X9.034 Y24.468
X10.016 Y24.468
X10.223 Y24.675
X17.717 Y24.675
X17.924 Y24.468
X18.906 Y24.468
X19.601 Y25.163
X19.601 Y26.145
X18.906 Y26.840
X17.924 Y26.840
X17.717 Y26.633
X10.223 Y26.633
X10.016 Y26.840
X9.034 Y26.840
G0 Z3.000
G0  X33.531 Y26.835
G0  Z3.000
G01 F400 Z0
G01 F400 Z-0.100
G01F400X33.288 Y26.783
X33.061 Y26.683
X32.860 Y26.537
X32.694 Y26.352
X32.570 Y26.137
X32.493 Y25.901
X32.467 Y25.654
X32.493 Y25.407
X32.570 Y25.171
X32.694 Y24.956
X32.860 Y24.771
X33.061 Y24.626
X33.288 Y24.525
X33.531 Y24.473
X33.779 Y24.473
X34.022 Y24.525
X34.249 Y24.626
X34.450 Y24.771
X34.616 Y24.956
X34.740 Y25.171
X34.817 Y25.407
X34.843 Y25.654
X34.817 Y25.901
X34.740 Y26.137
X34.616 Y26.352
X34.450 Y26.537
X34.249 Y26.683
X34.022 Y26.783
X33.779 Y26.835
X33.531 Y26.835
G0 Z3.000
G0  X42.416 Y25.616
G0  Z3.000
G01 F400 Z0
G01 F400 Z-0.100
G01F400X42.162 Y25.562
X41.926 Y25.457
X41.716 Y25.304
X41.543 Y25.112
X41.414 Y24.888
X41.334 Y24.642
X41.307 Y24.384
X41.334 Y24.127
X41.414 Y23.880
X41.543 Y23.656
X41.716 Y23.464
X41.926 Y23.312
X42.162 Y23.206
X42.416 Y23.152
X42.674 Y23.152
X42.928 Y23.206
X43.164 Y23.312
X43.293 Y23.405
X44.102 Y23.405
X44.102 Y10.123
X7.968 Y10.123
X7.968 Y13.530
X8.171 Y13.733
X8.171 Y14.715
X7.476 Y15.410
X6.494 Y15.410
X5.799 Y14.715
X5.799 Y13.733
X6.003 Y13.530
X6.003 Y9.126
X6.022 Y8.939
X6.086 Y8.744
X6.189 Y8.565
X6.326 Y8.412
X6.493 Y8.292
X6.681 Y8.208
X6.882 Y8.165
X45.188 Y8.165
X45.389 Y8.208
X45.577 Y8.292
X45.744 Y8.412
X45.881 Y8.565
X45.984 Y8.744
X46.048 Y8.939
X46.068 Y9.126
X46.068 Y24.402
X46.048 Y24.589
X45.984 Y24.784
X45.881 Y24.963
X45.744 Y25.116
X45.577 Y25.236
X45.389 Y25.320
X45.188 Y25.363
X43.293 Y25.363
X43.164 Y25.457
X42.928 Y25.562
X42.674 Y25.616
X42.416 Y25.616
G0 Z3.000
G0  X39.876 Y25.616
G0  Z3.000
G01 F400 Z0
G01 F400 Z-0.100
G01F400X39.622 Y25.562
X39.386 Y25.457
X39.176 Y25.304
X39.003 Y25.112
X38.874 Y24.888
X38.794 Y24.642
X38.767 Y24.384
X38.794 Y24.127
X38.874 Y23.880
X39.003 Y23.656
X39.176 Y23.464
X39.386 Y23.312
X39.622 Y23.206
X39.876 Y23.152
X40.134 Y23.152
X40.388 Y23.206
X40.624 Y23.312
X40.834 Y23.464
X41.007 Y23.656
X41.136 Y23.880
X41.216 Y24.127
X41.243 Y24.384
X41.216 Y24.642
X41.136 Y24.888
X41.007 Y25.112
X40.834 Y25.304
X40.624 Y25.457
X40.388 Y25.562
X40.134 Y25.616
X39.876 Y25.616
G0 Z3.000
G0  X42.416 Y23.076
G0  Z3.000
G01 F400 Z0
G01 F400 Z-0.100
G01F400X42.162 Y23.022
X41.926 Y22.917
X41.716 Y22.764
X41.543 Y22.572
X41.414 Y22.348
X41.334 Y22.102
X41.307 Y21.844
X41.334 Y21.587
X41.414 Y21.340
X41.543 Y21.116
X41.716 Y20.924
X41.926 Y20.771
X42.162 Y20.666
X42.416 Y20.612
X42.674 Y20.612
X42.928 Y20.666
X43.164 Y20.771
X43.374 Y20.924
X43.547 Y21.116
X43.676 Y21.340
X43.756 Y21.587
X43.783 Y21.844
X43.756 Y22.102
X43.676 Y22.348
X43.547 Y22.572
X43.374 Y22.764
X43.164 Y22.917
X42.928 Y23.022
X42.674 Y23.076
X42.416 Y23.076
G0 Z3.000
G0  X39.876 Y23.076
G0  Z3.000
G01 F400 Z0
G01 F400 Z-0.100
G01F400X39.622 Y23.022
X39.386 Y22.917
X39.176 Y22.764
X39.003 Y22.572
X38.874 Y22.348
X38.794 Y22.102
X38.767 Y21.844
X38.794 Y21.587
X38.874 Y21.340
X39.003 Y21.116
X39.176 Y20.924
X39.386 Y20.771
X39.622 Y20.666
X39.876 Y20.612
X40.134 Y20.612
X40.388 Y20.666
X40.624 Y20.771
X40.834 Y20.924
X41.007 Y21.116
X41.136 Y21.340
X41.216 Y21.587
X41.243 Y21.844
X41.216 Y22.102
X41.136 Y22.348
X41.007 Y22.572
X40.834 Y22.764
X40.624 Y22.917
X40.388 Y23.022
X40.134 Y23.076
X39.876 Y23.076
G0 Z3.000
G0  X39.876 Y20.536
G0  Z3.000
G01 F400 Z0
G01 F400 Z-0.100
G01F400X39.622 Y20.482
X39.386 Y20.377
X39.176 Y20.224
X39.003 Y20.032
X38.874 Y19.808
X38.794 Y19.562
X38.767 Y19.304
X38.794 Y19.047
X38.874 Y18.800
X39.003 Y18.576
X39.176 Y18.384
X39.386 Y18.232
X39.622 Y18.126
X39.876 Y18.072
X40.134 Y18.072
X40.388 Y18.126
X40.624 Y18.232
X40.834 Y18.384
X41.007 Y18.576
X41.136 Y18.800
X41.216 Y19.047
X41.243 Y19.304
X41.216 Y19.562
X41.136 Y19.808
X41.007 Y20.032
X40.834 Y20.224
X40.624 Y20.377
X40.388 Y20.482
X40.134 Y20.536
X39.876 Y20.536
G0 Z3.000
G0  X42.416 Y20.536
G0  Z3.000
G01 F400 Z0
G01 F400 Z-0.100
G01F400X42.162 Y20.482
X41.926 Y20.377
X41.716 Y20.224
X41.543 Y20.032
X41.414 Y19.808
X41.334 Y19.562
X41.307 Y19.304
X41.334 Y19.047
X41.414 Y18.800
X41.543 Y18.576
X41.716 Y18.384
X41.926 Y18.232
X42.162 Y18.126
X42.416 Y18.072
X42.674 Y18.072
X42.928 Y18.126
X43.164 Y18.232
X43.374 Y18.384
X43.547 Y18.576
X43.676 Y18.800
X43.756 Y19.047
X43.783 Y19.304
X43.756 Y19.562
X43.676 Y19.808
X43.547 Y20.032
X43.374 Y20.224
X43.164 Y20.377
X42.928 Y20.482
X42.674 Y20.536
X42.416 Y20.536
G0 Z3.000
G0  X39.876 Y17.996
G0  Z3.000
G01 F400 Z0
G01 F400 Z-0.100
G01F400X39.622 Y17.942
X39.386 Y17.837
X39.176 Y17.684
X39.003 Y17.492
X38.874 Y17.268
X38.794 Y17.021
X38.767 Y16.764
X38.794 Y16.506
X38.874 Y16.260
X39.003 Y16.036
X39.176 Y15.844
X39.386 Y15.692
X39.622 Y15.586
X39.876 Y15.532
X40.134 Y15.532
X40.388 Y15.586
X40.624 Y15.692
X40.834 Y15.844
X41.007 Y16.036
X41.136 Y16.260
X41.216 Y16.506
X41.243 Y16.764
X41.216 Y17.021
X41.136 Y17.268
X41.007 Y17.492
X40.834 Y17.684
X40.624 Y17.837
X40.388 Y17.942
X40.134 Y17.996
X39.876 Y17.996
G0 Z3.000
G0  X42.416 Y17.996
G0  Z3.000
G01 F400 Z0
G01 F400 Z-0.100
G01F400X42.162 Y17.942
X41.926 Y17.837
X41.716 Y17.684
X41.543 Y17.492
X41.414 Y17.268
X41.334 Y17.021
X41.307 Y16.764
X41.334 Y16.506
X41.414 Y16.260
X41.543 Y16.036
X41.716 Y15.844
X41.926 Y15.692
X42.162 Y15.586
X42.416 Y15.532
X42.674 Y15.532
X42.928 Y15.586
X43.164 Y15.692
X43.374 Y15.844
X43.547 Y16.036
X43.676 Y16.260
X43.756 Y16.506
X43.783 Y16.764
X43.756 Y17.021
X43.676 Y17.268
X43.547 Y17.492
X43.374 Y17.684
X43.164 Y17.837
X42.928 Y17.942
X42.674 Y17.996
X42.416 Y17.996
G0 Z3.000
G0  X39.876 Y15.456
G0  Z3.000
G01 F400 Z0
G01 F400 Z-0.100
G01F400X39.622 Y15.402
X39.386 Y15.296
X39.176 Y15.144
X39.003 Y14.952
X38.874 Y14.728
X38.794 Y14.482
X38.767 Y14.224
X38.794 Y13.966
X38.874 Y13.720
X39.003 Y13.496
X39.176 Y13.304
X39.386 Y13.152
X39.622 Y13.046
X39.876 Y12.992
X40.134 Y12.992
X40.388 Y13.046
X40.624 Y13.152
X40.834 Y13.304
X41.007 Y13.496
X41.136 Y13.720
X41.216 Y13.966
X41.243 Y14.224
X41.216 Y14.482
X41.136 Y14.728
X41.007 Y14.952
X40.834 Y15.144
X40.624 Y15.296
X40.388 Y15.402
X40.134 Y15.456
X39.876 Y15.456
G0 Z3.000
G0  X42.416 Y15.456
G0  Z3.000
G01 F400 Z0
G01 F400 Z-0.100
G01F400X42.162 Y15.402
X41.926 Y15.296
X41.716 Y15.144
X41.543 Y14.952
X41.414 Y14.728
X41.334 Y14.482
X41.307 Y14.224
X41.334 Y13.966
X41.414 Y13.720
X41.543 Y13.496
X41.716 Y13.304
X41.926 Y13.152
X42.162 Y13.046
X42.416 Y12.992
X42.674 Y12.992
X42.928 Y13.046
X43.164 Y13.152
X43.374 Y13.304
X43.547 Y13.496
X43.676 Y13.720
X43.756 Y13.966
X43.783 Y14.224
X43.756 Y14.482
X43.676 Y14.728
X43.547 Y14.952
X43.374 Y15.144
X43.164 Y15.296
X42.928 Y15.402
X42.674 Y15.456
X42.416 Y15.456
G0 Z3.000
G0  X9.034 Y15.410
G0  Z3.000
G01 F400 Z0
G01 F400 Z-0.100
G01F400X8.339 Y14.715
X8.339 Y13.733
X9.034 Y13.038
X10.016 Y13.038
X10.223 Y13.245
X17.717 Y13.245
X17.924 Y13.038
X18.906 Y13.038
X19.601 Y13.733
X19.601 Y14.715
X18.906 Y15.410
X17.924 Y15.410
X17.717 Y15.203
X10.223 Y15.203
X10.016 Y15.410
X9.034 Y15.410
G0 Z3.000
G0  X39.876 Y12.916
G0  Z3.000
G01 F400 Z0
G01 F400 Z-0.100
G01F400X39.622 Y12.862
X39.386 Y12.757
X39.176 Y12.604
X39.003 Y12.412
X38.874 Y12.188
X38.794 Y11.942
X38.767 Y11.684
X38.794 Y11.427
X38.874 Y11.180
X39.003 Y10.956
X39.176 Y10.764
X39.386 Y10.612
X39.622 Y10.506
X39.876 Y10.452
X40.134 Y10.452
X40.388 Y10.506
X40.624 Y10.612
X40.834 Y10.764
X41.007 Y10.956
X41.136 Y11.180
X41.216 Y11.427
X41.243 Y11.684
X41.216 Y11.942
X41.136 Y12.188
X41.007 Y12.412
X40.834 Y12.604
X40.624 Y12.757
X40.388 Y12.862
X40.134 Y12.916
X39.876 Y12.916
G0 Z3.000
G0  X42.416 Y12.916
G0  Z3.000
G01 F400 Z0
G01 F400 Z-0.100
G01F400X42.162 Y12.862
X41.926 Y12.757
X41.716 Y12.604
X41.543 Y12.412
X41.414 Y12.188
X41.334 Y11.942
X41.307 Y11.684
X41.334 Y11.427
X41.414 Y11.180
X41.543 Y10.956
X41.716 Y10.764
X41.926 Y10.612
X42.162 Y10.506
X42.416 Y10.452
X42.674 Y10.452
X42.928 Y10.506
X43.164 Y10.612
X43.374 Y10.764
X43.547 Y10.956
X43.676 Y11.180
X43.756 Y11.427
X43.783 Y11.684
X43.756 Y11.942
X43.676 Y12.188
X43.547 Y12.412
X43.374 Y12.604
X43.164 Y12.757
X42.928 Y12.862
X42.674 Y12.916
X42.416 Y12.916
G0 Z3.000
G0  X10.669 Y49.716
G0  Z3.000
G01 F400 Z0
G01 F400 Z-0.100
G01F400X10.421 Y49.664
X10.191 Y49.561
X9.998 Y49.421
X6.146 Y45.569
X6.007 Y45.415
X5.881 Y45.196
X5.802 Y44.955
X5.779 Y44.734
X5.779 Y37.871
X5.576 Y37.668
X5.576 Y36.500
X6.401 Y35.675
X7.569 Y35.675
X8.255 Y36.361
X8.941 Y35.675
X10.109 Y35.675
X10.315 Y35.882
X17.625 Y35.882
X17.831 Y35.675
X18.999 Y35.675
X19.824 Y36.500
X19.824 Y37.668
X18.999 Y38.493
X17.831 Y38.493
X17.625 Y38.286
X10.315 Y38.286
X10.109 Y38.493
X8.941 Y38.493
X8.255 Y37.807
X8.191 Y37.871
X8.191 Y44.206
X11.297 Y47.312
X47.123 Y47.312
X48.578 Y45.857
X48.578 Y32.502
X46.742 Y30.666
X43.365 Y30.666
X43.276 Y30.731
X43.270 Y30.734
X43.276 Y30.737
X43.524 Y30.917
X43.729 Y31.144
X43.882 Y31.409
X43.976 Y31.700
X44.008 Y32.004
X43.976 Y32.308
X43.882 Y32.599
X43.729 Y32.864
X43.524 Y33.091
X43.276 Y33.271
X43.270 Y33.274
X43.276 Y33.277
X43.524 Y33.457
X43.729 Y33.684
X43.882 Y33.949
X43.976 Y34.240
X44.008 Y34.544
X43.976 Y34.848
X43.882 Y35.139
X43.729 Y35.404
X43.524 Y35.631
X43.276 Y35.811
X43.270 Y35.814
X43.276 Y35.817
X43.524 Y35.997
X43.729 Y36.224
X43.882 Y36.489
X43.976 Y36.780
X44.008 Y37.084
X43.976 Y37.388
X43.882 Y37.679
X43.729 Y37.944
X43.524 Y38.171
X43.276 Y38.351
X43.270 Y38.354
X43.276 Y38.357
X43.524 Y38.537
X43.729 Y38.764
X43.882 Y39.029
X43.976 Y39.320
X44.008 Y39.624
X43.976 Y39.928
X43.882 Y40.219
X43.729 Y40.484
X43.530 Y40.704
X44.005 Y40.704
X44.005 Y43.624
X41.085 Y43.624
X41.085 Y43.139
X40.984 Y43.251
X40.736 Y43.431
X40.457 Y43.555
X40.158 Y43.619
X39.852 Y43.619
X39.553 Y43.555
X39.273 Y43.431
X39.026 Y43.251
X38.821 Y43.024
X38.669 Y42.759
X38.574 Y42.468
X38.542 Y42.164
X38.574 Y41.860
X38.669 Y41.569
X38.821 Y41.304
X39.026 Y41.077
X39.273 Y40.897
X39.280 Y40.894
X39.273 Y40.891
X39.026 Y40.711
X38.821 Y40.484
X38.669 Y40.219
X38.574 Y39.928
X38.542 Y39.624
X38.574 Y39.320
X38.669 Y39.029
X38.821 Y38.764
X39.026 Y38.537
X39.273 Y38.357
X39.280 Y38.354
X39.273 Y38.351
X39.185 Y38.286
X29.365 Y38.286
X29.159 Y38.493
X27.991 Y38.493
X27.166 Y37.668
X27.166 Y36.500
X27.369 Y36.297
X27.369 Y26.441
X27.166 Y26.238
X27.166 Y25.070
X27.369 Y24.867
X27.369 Y15.011
X27.166 Y14.808
X27.166 Y13.640
X27.991 Y12.815
X29.159 Y12.815
X29.984 Y13.640
X29.984 Y14.808
X29.781 Y15.011
X29.781 Y24.867
X29.984 Y25.070
X29.984 Y25.359
X31.617 Y26.992
X32.921 Y26.992
X32.949 Y26.971
X33.055 Y26.924
X32.949 Y26.877
X32.710 Y26.703
X32.513 Y26.484
X32.365 Y26.228
X32.274 Y25.948
X32.243 Y25.654
X32.274 Y25.360
X32.365 Y25.080
X32.513 Y24.824
X32.710 Y24.605
X32.949 Y24.431
X33.219 Y24.311
X33.507 Y24.250
X33.803 Y24.250
X34.091 Y24.311
X34.361 Y24.431
X34.600 Y24.605
X34.797 Y24.824
X34.945 Y25.080
X35.036 Y25.360
X35.067 Y25.654
X35.036 Y25.948
X34.945 Y26.228
X34.797 Y26.484
X34.600 Y26.703
X34.361 Y26.877
X34.256 Y26.924
X34.361 Y26.971
X34.600 Y27.145
X34.797 Y27.364
X34.945 Y27.620
X35.036 Y27.900
X35.067 Y28.194
X35.036 Y28.488
X34.945 Y28.768
X34.797 Y29.024
X34.600 Y29.243
X34.361 Y29.417
X34.256 Y29.464
X34.361 Y29.511
X34.600 Y29.685
X34.797 Y29.904
X34.945 Y30.160
X35.022 Y30.397
X37.967 Y33.342
X39.185 Y33.342
X39.273 Y33.277
X39.280 Y33.274
X39.273 Y33.271
X39.026 Y33.091
X38.821 Y32.864
X38.669 Y32.599
X38.574 Y32.308
X38.542 Y32.004
X38.574 Y31.700
X38.669 Y31.409
X38.821 Y31.144
X39.026 Y30.917
X39.273 Y30.737
X39.280 Y30.734
X39.273 Y30.731
X39.026 Y30.551
X38.821 Y30.324
X38.669 Y30.059
X38.574 Y29.768
X38.542 Y29.464
X38.574 Y29.160
X38.669 Y28.869
X38.821 Y28.604
X39.026 Y28.377
X39.273 Y28.197
X39.280 Y28.194
X39.273 Y28.191
X39.026 Y28.011
X38.821 Y27.784
X38.669 Y27.519
X38.574 Y27.228
X38.542 Y26.924
X38.574 Y26.620
X38.669 Y26.329
X38.821 Y26.064
X39.026 Y25.837
X39.273 Y25.657
X39.280 Y25.654
X39.273 Y25.651
X39.026 Y25.471
X38.821 Y25.244
X38.669 Y24.979
X38.574 Y24.688
X38.542 Y24.384
X38.574 Y24.080
X38.669 Y23.789
X38.821 Y23.524
X39.026 Y23.297
X39.273 Y23.117
X39.280 Y23.114
X39.273 Y23.111
X39.026 Y22.931
X38.821 Y22.704
X38.669 Y22.439
X38.574 Y22.148
X38.542 Y21.844
X38.574 Y21.540
X38.669 Y21.249
X38.821 Y20.984
X39.026 Y20.757
X39.273 Y20.577
X39.280 Y20.574
X39.273 Y20.571
X39.026 Y20.391
X38.821 Y20.164
X38.669 Y19.899
X38.574 Y19.608
X38.542 Y19.304
X38.574 Y19.000
X38.669 Y18.709
X38.821 Y18.444
X39.026 Y18.217
X39.273 Y18.037
X39.280 Y18.034
X39.273 Y18.031
X39.026 Y17.851
X38.821 Y17.624
X38.669 Y17.359
X38.574 Y17.068
X38.542 Y16.764
X38.574 Y16.460
X38.669 Y16.169
X38.821 Y15.904
X39.026 Y15.677
X39.273 Y15.497
X39.280 Y15.494
X39.273 Y15.491
X39.026 Y15.311
X38.821 Y15.084
X38.669 Y14.819
X38.574 Y14.528
X38.542 Y14.224
X38.574 Y13.920
X38.669 Y13.629
X38.821 Y13.364
X39.026 Y13.137
X39.273 Y12.957
X39.280 Y12.954
X39.273 Y12.951
X39.026 Y12.771
X38.821 Y12.544
X38.669 Y12.279
X38.574 Y11.988
X38.542 Y11.684
X38.574 Y11.380
X38.669 Y11.089
X38.821 Y10.824
X39.026 Y10.597
X39.273 Y10.417
X39.432 Y10.346
X8.191 Y10.346
X8.191 Y13.437
X8.255 Y13.501
X8.941 Y12.815
X10.109 Y12.815
X10.315 Y13.022
X17.625 Y13.022
X17.831 Y12.815
X18.999 Y12.815
X19.824 Y13.640
X19.824 Y14.808
X18.999 Y15.633
X17.831 Y15.633
X17.625 Y15.426
X10.315 Y15.426
X10.109 Y15.633
X8.941 Y15.633
X8.255 Y14.947
X7.569 Y15.633
X6.401 Y15.633
X5.576 Y14.808
X5.576 Y13.640
X5.779 Y13.437
X5.779 Y9.114
X5.802 Y8.893
X5.881 Y8.652
X6.007 Y8.433
X6.176 Y8.246
X6.381 Y8.097
X6.611 Y7.994
X6.859 Y7.942
X45.211 Y7.942
X45.459 Y7.994
X45.690 Y8.097
X45.894 Y8.246
X46.063 Y8.433
X46.190 Y8.652
X46.268 Y8.893
X46.291 Y9.114
X46.291 Y24.414
X46.268 Y24.635
X46.190 Y24.876
X46.063 Y25.095
X45.894 Y25.282
X45.690 Y25.431
X45.459 Y25.534
X45.211 Y25.586
X43.365 Y25.586
X43.276 Y25.651
X43.270 Y25.654
X43.276 Y25.657
X43.365 Y25.722
X46.742 Y25.722
X48.578 Y23.886
X48.578 Y7.991
X45.853 Y5.266
X3.677 Y5.266
X3.111 Y5.832
X3.111 Y23.886
X3.677 Y24.452
X6.195 Y24.452
X6.401 Y24.245
X7.569 Y24.245
X8.255 Y24.931
X8.941 Y24.245
X10.109 Y24.245
X10.315 Y24.452
X17.625 Y24.452
X17.831 Y24.245
X18.999 Y24.245
X19.824 Y25.070
X19.824 Y26.238
X18.999 Y27.063
X17.831 Y27.063
X17.625 Y26.856
X10.315 Y26.856
X10.109 Y27.063
X8.941 Y27.063
X8.255 Y26.377
X7.569 Y27.063
X6.401 Y27.063
X6.195 Y26.856
X3.049 Y26.856
X2.801 Y26.804
X2.571 Y26.701
X2.378 Y26.561
X1.066 Y25.249
X0.927 Y25.095
X0.800 Y24.876
X0.722 Y24.635
X0.699 Y24.414
X0.699 Y5.304
X0.722 Y5.083
X0.800 Y4.842
X0.927 Y4.623
X1.066 Y4.469
X2.378 Y3.157
X2.571 Y3.017
X2.801 Y2.914
X3.049 Y2.862
X46.481 Y2.862
X46.729 Y2.914
X46.960 Y3.017
X47.152 Y3.157
X50.623 Y6.628
X50.762 Y6.782
X50.889 Y7.001
X50.967 Y7.242
X50.990 Y7.463
X50.990 Y24.414
X50.967 Y24.635
X50.889 Y24.876
X50.762 Y25.095
X50.623 Y25.249
X48.041 Y27.831
X47.849 Y27.971
X47.618 Y28.074
X47.370 Y28.126
X43.365 Y28.126
X43.276 Y28.191
X43.270 Y28.194
X43.276 Y28.197
X43.365 Y28.262
X47.370 Y28.262
X47.618 Y28.314
X47.849 Y28.417
X48.041 Y28.557
X50.623 Y31.139
X50.762 Y31.293
X50.889 Y31.512
X50.967 Y31.753
X50.990 Y31.974
X50.990 Y46.385
X50.967 Y46.606
X50.889 Y46.847
X50.762 Y47.066
X50.623 Y47.220
X48.422 Y49.421
X48.230 Y49.561
X47.999 Y49.664
X47.751 Y49.716
X10.669 Y49.716
G0 Z3.000
G0  X41.085 Y41.189
G0  Z3.000
G01 F400 Z0
G01 F400 Z-0.100
G01F400X41.085 Y40.704
X41.560 Y40.704
X41.361 Y40.484
X41.275 Y40.334
X41.189 Y40.484
X40.984 Y40.711
X40.736 Y40.891
X40.730 Y40.894
X40.736 Y40.897
X40.984 Y41.077
X41.085 Y41.189
G0 Z3.000
G0  X41.275 Y38.914
G0  Z3.000
G01 F400 Z0
G01 F400 Z-0.100
G01F400X41.361 Y38.764
X41.566 Y38.537
X41.814 Y38.357
X41.820 Y38.354
X41.814 Y38.351
X41.566 Y38.171
X41.361 Y37.944
X41.275 Y37.794
X41.189 Y37.944
X40.984 Y38.171
X40.736 Y38.351
X40.730 Y38.354
X40.736 Y38.357
X40.984 Y38.537
X41.189 Y38.764
X41.275 Y38.914
G0 Z3.000
G0  X41.275 Y36.374
G0  Z3.000
G01 F400 Z0
G01 F400 Z-0.100
G01F400X41.361 Y36.224
X41.566 Y35.997
X41.814 Y35.817
X41.820 Y35.814
X41.814 Y35.811
X41.566 Y35.631
X41.361 Y35.404
X41.275 Y35.254
X41.189 Y35.404
X40.984 Y35.631
X40.736 Y35.811
X40.730 Y35.814
X40.736 Y35.817
X40.984 Y35.997
X41.189 Y36.224
X41.275 Y36.374
G0 Z3.000
G0  X29.781 Y35.882
G0  Z3.000
G01 F400 Z0
G01 F400 Z-0.100
G01F400X39.185 Y35.882
X39.273 Y35.817
X39.280 Y35.814
X39.273 Y35.811
X39.185 Y35.746
X37.339 Y35.746
X37.091 Y35.694
X36.861 Y35.591
X36.669 Y35.452
X33.284 Y32.091
X33.219 Y32.077
X32.949 Y31.957
X32.710 Y31.783
X32.513 Y31.564
X32.365 Y31.308
X32.274 Y31.028
X32.243 Y30.734
X32.274 Y30.440
X32.365 Y30.160
X32.513 Y29.904
X32.710 Y29.685
X32.949 Y29.511
X33.055 Y29.464
X32.949 Y29.417
X32.921 Y29.396
X30.989 Y29.396
X30.741 Y29.344
X30.511 Y29.241
X30.318 Y29.101
X29.781 Y28.564
X29.781 Y35.882
G0 Z3.000
G0  X41.275 Y33.834
G0  Z3.000
G01 F400 Z0
G01 F400 Z-0.100
G01F400X41.361 Y33.684
X41.566 Y33.457
X41.814 Y33.277
X41.820 Y33.274
X41.814 Y33.271
X41.566 Y33.091
X41.361 Y32.864
X41.275 Y32.714
X41.189 Y32.864
X40.984 Y33.091
X40.736 Y33.271
X40.730 Y33.274
X40.736 Y33.277
X40.984 Y33.457
X41.189 Y33.684
X41.275 Y33.834
G0 Z3.000
G0  X41.275 Y31.294
G0  Z3.000
G01 F400 Z0
G01 F400 Z-0.100
G01F400X41.361 Y31.144
X41.566 Y30.917
X41.814 Y30.737
X41.820 Y30.734
X41.814 Y30.731
X41.566 Y30.551
X41.361 Y30.324
X41.275 Y30.174
X41.189 Y30.324
X40.984 Y30.551
X40.736 Y30.731
X40.730 Y30.734
X40.736 Y30.737
X40.984 Y30.917
X41.189 Y31.144
X41.275 Y31.294
G0 Z3.000
G0  X41.275 Y28.754
G0  Z3.000
G01 F400 Z0
G01 F400 Z-0.100
G01F400X41.361 Y28.604
X41.566 Y28.377
X41.814 Y28.197
X41.820 Y28.194
X41.814 Y28.191
X41.566 Y28.011
X41.361 Y27.784
X41.275 Y27.634
X41.189 Y27.784
X40.984 Y28.011
X40.736 Y28.191
X40.730 Y28.194
X40.736 Y28.197
X40.984 Y28.377
X41.189 Y28.604
X41.275 Y28.754
G0 Z3.000
G0  X41.275 Y26.214
G0  Z3.000
G01 F400 Z0
G01 F400 Z-0.100
G01F400X41.361 Y26.064
X41.566 Y25.837
X41.814 Y25.657
X41.820 Y25.654
X41.814 Y25.651
X41.566 Y25.471
X41.361 Y25.244
X41.275 Y25.094
X41.189 Y25.244
X40.984 Y25.471
X40.736 Y25.651
X40.730 Y25.654
X40.736 Y25.657
X40.984 Y25.837
X41.189 Y26.064
X41.275 Y26.214
G0 Z3.000
G0  X41.275 Y23.674
G0  Z3.000
G01 F400 Z0
G01 F400 Z-0.100
G01F400X41.361 Y23.524
X41.566 Y23.297
X41.814 Y23.117
X41.820 Y23.114
X41.814 Y23.111
X41.566 Y22.931
X41.361 Y22.704
X41.275 Y22.554
X41.189 Y22.704
X40.984 Y22.931
X40.736 Y23.111
X40.730 Y23.114
X40.736 Y23.117
X40.984 Y23.297
X41.189 Y23.524
X41.275 Y23.674
G0 Z3.000
G0  X43.365 Y23.182
G0  Z3.000
G01 F400 Z0
G01 F400 Z-0.100
G01F400X43.879 Y23.182
X43.879 Y22.443
X43.729 Y22.704
X43.524 Y22.931
X43.276 Y23.111
X43.270 Y23.114
X43.276 Y23.117
X43.365 Y23.182
G0 Z3.000
G0  X43.879 Y21.245
G0  Z3.000
G01 F400 Z0
G01 F400 Z-0.100
G01F400X43.879 Y19.903
X43.729 Y20.164
X43.524 Y20.391
X43.276 Y20.571
X43.270 Y20.574
X43.276 Y20.577
X43.524 Y20.757
X43.729 Y20.984
X43.879 Y21.245
G0 Z3.000
G0  X41.275 Y21.134
G0  Z3.000
G01 F400 Z0
G01 F400 Z-0.100
G01F400X41.361 Y20.984
X41.566 Y20.757
X41.814 Y20.577
X41.820 Y20.574
X41.814 Y20.571
X41.566 Y20.391
X41.361 Y20.164
X41.275 Y20.014
X41.189 Y20.164
X40.984 Y20.391
X40.736 Y20.571
X40.730 Y20.574
X40.736 Y20.577
X40.984 Y20.757
X41.189 Y20.984
X41.275 Y21.134
G0 Z3.000
G0  X43.879 Y18.705
G0  Z3.000
G01 F400 Z0
G01 F400 Z-0.100
G01F400X43.879 Y17.363
X43.729 Y17.624
X43.524 Y17.851
X43.276 Y18.031
X43.270 Y18.034
X43.276 Y18.037
X43.524 Y18.217
X43.729 Y18.444
X43.879 Y18.705
G0 Z3.000
G0  X41.275 Y18.594
G0  Z3.000
G01 F400 Z0
G01 F400 Z-0.100
G01F400X41.361 Y18.444
X41.566 Y18.217
X41.814 Y18.037
X41.820 Y18.034
X41.814 Y18.031
X41.566 Y17.851
X41.361 Y17.624
X41.275 Y17.474
X41.189 Y17.624
X40.984 Y17.851
X40.736 Y18.031
X40.730 Y18.034
X40.736 Y18.037
X40.984 Y18.217
X41.189 Y18.444
X41.275 Y18.594
G0 Z3.000
G0  X43.879 Y16.165
G0  Z3.000
G01 F400 Z0
G01 F400 Z-0.100
G01F400X43.879 Y14.823
X43.729 Y15.084
X43.524 Y15.311
X43.276 Y15.491
X43.270 Y15.494
X43.276 Y15.497
X43.524 Y15.677
X43.729 Y15.904
X43.879 Y16.165
G0 Z3.000
G0  X41.275 Y16.054
G0  Z3.000
G01 F400 Z0
G01 F400 Z-0.100
G01F400X41.361 Y15.904
X41.566 Y15.677
X41.814 Y15.497
X41.820 Y15.494
X41.814 Y15.491
X41.566 Y15.311
X41.361 Y15.084
X41.275 Y14.934
X41.189 Y15.084
X40.984 Y15.311
X40.736 Y15.491
X40.730 Y15.494
X40.736 Y15.497
X40.984 Y15.677
X41.189 Y15.904
X41.275 Y16.054
G0 Z3.000
G0  X43.879 Y13.625
G0  Z3.000
G01 F400 Z0
G01 F400 Z-0.100
G01F400X43.879 Y12.283
X43.729 Y12.544
X43.524 Y12.771
X43.276 Y12.951
X43.270 Y12.954
X43.276 Y12.957
X43.524 Y13.137
X43.729 Y13.364
X43.879 Y13.625
G0 Z3.000
G0  X41.275 Y13.514
G0  Z3.000
G01 F400 Z0
G01 F400 Z-0.100
G01F400X41.361 Y13.364
X41.566 Y13.137
X41.814 Y12.957
X41.820 Y12.954
X41.814 Y12.951
X41.566 Y12.771
X41.361 Y12.544
X41.275 Y12.394
X41.189 Y12.544
X40.984 Y12.771
X40.736 Y12.951
X40.730 Y12.954
X40.736 Y12.957
X40.984 Y13.137
X41.189 Y13.364
X41.275 Y13.514
G0 Z3.000
G0  X43.879 Y11.085
G0  Z3.000
G01 F400 Z0
G01 F400 Z-0.100
G01F400X43.879 Y10.346
X43.118 Y10.346
X43.276 Y10.417
X43.524 Y10.597
X43.729 Y10.824
X43.879 Y11.085
G0 Z3.000
G0  X41.275 Y10.974
G0  Z3.000
G01 F400 Z0
G01 F400 Z-0.100
G01F400X41.361 Y10.824
X41.566 Y10.597
X41.814 Y10.417
X41.972 Y10.346
X40.578 Y10.346
X40.736 Y10.417
X40.984 Y10.597
X41.189 Y10.824
X41.275 Y10.974
G0 Z3.000
M05
(  )
T609 M06
( Drilling )
M03 S10000
G00 X18.415 Y14.224
G0  Z3.000
G01 F360.7 Z-1.780
G00 Z3.000
G00 X28.575 Y14.224
G0  Z3.000
G01 F360.7 Z-1.780
G00 Z3.000
G00 X18.415 Y25.654
G0  Z3.000
G01 F360.7 Z-1.780
G00 Z3.000
G00 X28.575 Y25.654
G0  Z3.000
G01 F360.7 Z-1.780
G00 Z3.000
G00 X18.415 Y37.084
G0  Z3.000
G01 F360.7 Z-1.780
G00 Z3.000
G00 X28.575 Y37.084
G0  Z3.000
G01 F360.7 Z-1.780
G00 Z3.000
G00 X9.525 Y14.224
G0  Z3.000
G01 F360.7 Z-1.780
G00 Z3.000
G00 X6.985 Y14.224
G0  Z3.000
G01 F360.7 Z-1.780
G00 Z3.000
G00 X9.525 Y25.654
G0  Z3.000
G01 F360.7 Z-1.780
G00 Z3.000
G00 X6.985 Y25.654
G0  Z3.000
G01 F360.7 Z-1.780
G00 Z3.000
G00 X9.525 Y37.084
G0  Z3.000
G01 F360.7 Z-1.780
G00 Z3.000
G00 X6.985 Y37.084
G0  Z3.000
G01 F360.7 Z-1.780
G00 Z3.000
G00 X33.655 Y30.734
G0  Z3.000
G01 F360.7 Z-1.780
G00 Z3.000
G00 X33.655 Y25.654
G0  Z3.000
G01 F360.7 Z-1.780
G00 Z3.000
G00 X33.655 Y28.194
G0  Z3.000
G01 F360.7 Z-1.780
G00 Z3.000
G00 X40.005 Y37.084
G0  Z3.000
G01 F360.7 Z-1.780
G00 Z3.000
G00 X42.545 Y11.684
G0  Z3.000
G01 F360.7 Z-1.780
G00 Z3.000
G00 X40.005 Y14.224
G0  Z3.000
G01 F360.7 Z-1.780
G00 Z3.000
G00 X42.545 Y14.224
G0  Z3.000
G01 F360.7 Z-1.780
G00 Z3.000
G00 X40.005 Y16.764
G0  Z3.000
G01 F360.7 Z-1.780
G00 Z3.000
G00 X42.545 Y16.764
G0  Z3.000
G01 F360.7 Z-1.780
G00 Z3.000
G00 X40.005 Y19.304
G0  Z3.000
G01 F360.7 Z-1.780
G00 Z3.000
G00 X42.545 Y19.304
G0  Z3.000
G01 F360.7 Z-1.780
G00 Z3.000
G00 X40.005 Y21.844
G0  Z3.000
G01 F360.7 Z-1.780
G00 Z3.000
G00 X42.545 Y21.844
G0  Z3.000
G01 F360.7 Z-1.780
G00 Z3.000
G00 X40.005 Y24.384
G0  Z3.000
G01 F360.7 Z-1.780
G00 Z3.000
G00 X42.545 Y24.384
G0  Z3.000
G01 F360.7 Z-1.780
G00 Z3.000
G00 X40.005 Y26.924
G0  Z3.000
G01 F360.7 Z-1.780
G00 Z3.000
G00 X42.545 Y26.924
G0  Z3.000
G01 F360.7 Z-1.780
G00 Z3.000
G00 X40.005 Y29.464
G0  Z3.000
G01 F360.7 Z-1.780
G00 Z3.000
G00 X42.545 Y42.164
G0  Z3.000
G01 F360.7 Z-1.780
G00 Z3.000
G00 X40.005 Y42.164
G0  Z3.000
G01 F360.7 Z-1.780
G00 Z3.000
G00 X42.545 Y39.624
G0  Z3.000
G01 F360.7 Z-1.780
G00 Z3.000
G00 X40.005 Y39.624
G0  Z3.000
G01 F360.7 Z-1.780
G00 Z3.000
G00 X42.545 Y37.084
G0  Z3.000
G01 F360.7 Z-1.780
G00 Z3.000
G00 X40.005 Y11.684
G0  Z3.000
G01 F360.7 Z-1.780
G00 Z3.000
G00 X42.545 Y34.544
G0  Z3.000
G01 F360.7 Z-1.780
G00 Z3.000
G00 X40.005 Y34.544
G0  Z3.000
G01 F360.7 Z-1.780
G00 Z3.000
G00 X42.545 Y32.004
G0  Z3.000
G01 F360.7 Z-1.780
G00 Z3.000
G00 X40.005 Y32.004
G0  Z3.000
G01 F360.7 Z-1.780
G00 Z3.000
G00 X42.545 Y29.464
G0  Z3.000
G01 F360.7 Z-1.780
G00 Z3.000
G00 Z3.000
M05
M30
%